X: 22171
T: L'Ogre Aux Quatres Bras
R: reel
M: 4/4
K: Eminor
|:E2GF E2D2|EFGA B2B2|e2^de B2AG|FEFG AFGF|E2GF E2D2|
EFGA B2B2|e2^de B2AG|FEFG AcBA|GBBd BGAG|1 FEFG E2ED:|2 FEFG E2B2||
|:e2B2 B2^AB|Bedc B2GB|AGE2 EGFE|FEFG AFGA|eBB^A B2AB|
Bedc B2GB|AGE2 EGFE|FEFG AcBA|GBBd BGAG|1 FEFG E2B2:|2 FEFG E2ED||

